assets/images/folder.svg

<svg width="106" height="95" viewBox="0 0 106 95" fill="none" xmlns="http://www.w3.org/2000/svg">
<g id="Folder">
<g id="Bg">
<path id="Path" d="M89.0788 12.3543L60.3483 4.65599C49.927 1.86362 42.2244 6.33973 39.4228 16.7953L29.9342 52.2071C27.0868 62.834 31.5561 70.4247 41.9774 73.2171L70.7079 80.9154C81.2972 83.7528 88.7917 79.3678 91.6392 68.7409L101.128 33.3291C103.929 22.8735 99.6681 15.1917 89.0788 12.3543Z" fill="url(#paint0_linear_826_217)"/>
<g id="Path_2" opacity="0.5" filter="url(#filter0_f_826_217)">
<path d="M81.6311 21.9762L61.9851 16.7121C54.859 14.8027 49.5919 17.8634 47.6762 25.013L41.1879 49.2277C39.2408 56.4944 42.297 61.6849 49.4231 63.5943L69.0691 68.8585C76.31 70.7987 81.4348 67.8002 83.3819 60.5335L89.8702 36.3188C91.7859 29.1693 88.8721 23.9164 81.6311 21.9762Z" fill="#F86652"/>
</g>
</g>
<g id="Icon">
<g id="Union" filter="url(#filter1_b_826_217)">
<mask id="path-3-outside-1_826_217" maskUnits="userSpaceOnUse" x="0.435547" y="11.0972" width="84" height="84" fill="black">
<rect fill="white" x="0.435547" y="11.0972" width="84" height="84"/>
<path fill-rule="evenodd" clip-rule="evenodd" d="M1.43573 52.7208V69.3811C1.43493 71.1894 1.58063 72.9949 1.87141 74.7798C2.3287 77.9341 3.41512 80.965 5.06641 83.6931C5.81863 85.0098 6.73345 86.2271 7.78942 87.3164C12.6429 91.7552 19.0777 94.0654 25.6524 93.7296H58.8368C65.401 94.0679 71.8255 91.7566 76.6635 87.3164C77.7322 86.2292 78.6593 85.0118 79.4228 83.6931C81.0839 80.963 82.194 77.9351 82.6904 74.7798C82.9511 72.9919 83.0846 71.1878 83.0898 69.3811V47.9311C83.2139 43.8242 82.6117 39.7276 81.3108 35.8293C80.6496 33.9326 79.64 32.1755 78.3336 30.648C77.9229 30.1656 77.4736 29.7172 76.9902 29.3073C72.7931 26.0063 67.505 24.4024 62.1771 24.8144H49.9361C47.0381 24.758 44.3045 23.4373 42.4623 21.1928L38.5048 15.7216C36.6394 13.39 33.7971 12.052 30.8078 12.0983H22.312C7.06311 12.0983 1.43555 21.0479 1.43555 36.2657V52.7155C1.43553 52.7173 1.43559 52.7191 1.43573 52.7208Z"/>
</mask>
<path fill-rule="evenodd" clip-rule="evenodd" d="M1.43573 52.7208V69.3811C1.43493 71.1894 1.58063 72.9949 1.87141 74.7798C2.3287 77.9341 3.41512 80.965 5.06641 83.6931C5.81863 85.0098 6.73345 86.2271 7.78942 87.3164C12.6429 91.7552 19.0777 94.0654 25.6524 93.7296H58.8368C65.401 94.0679 71.8255 91.7566 76.6635 87.3164C77.7322 86.2292 78.6593 85.0118 79.4228 83.6931C81.0839 80.963 82.194 77.9351 82.6904 74.7798C82.9511 72.9919 83.0846 71.1878 83.0898 69.3811V47.9311C83.2139 43.8242 82.6117 39.7276 81.3108 35.8293C80.6496 33.9326 79.64 32.1755 78.3336 30.648C77.9229 30.1656 77.4736 29.7172 76.9902 29.3073C72.7931 26.0063 67.505 24.4024 62.1771 24.8144H49.9361C47.0381 24.758 44.3045 23.4373 42.4623 21.1928L38.5048 15.7216C36.6394 13.39 33.7971 12.052 30.8078 12.0983H22.312C7.06311 12.0983 1.43555 21.0479 1.43555 36.2657V52.7155C1.43553 52.7173 1.43559 52.7191 1.43573 52.7208Z" fill="#FFAC95" fill-opacity="0.4"/>
<path d="M1.43573 52.7208H2.43573C2.43573 52.6952 2.43474 52.6695 2.43276 52.6439L1.43573 52.7208ZM1.43573 69.3811L2.43573 69.3815V69.3811H1.43573ZM1.87141 74.7798L2.86106 74.6363C2.86023 74.6305 2.85934 74.6247 2.8584 74.619L1.87141 74.7798ZM5.06641 83.6931L5.9347 83.197C5.93053 83.1897 5.92626 83.1825 5.9219 83.1753L5.06641 83.6931ZM7.78942 87.3164L7.0714 88.0124C7.08536 88.0268 7.09975 88.0408 7.11455 88.0543L7.78942 87.3164ZM25.6524 93.7296V92.7296C25.6354 92.7296 25.6184 92.7301 25.6014 92.7309L25.6524 93.7296ZM58.8368 93.7296L58.8883 92.731C58.8712 92.7301 58.854 92.7296 58.8368 92.7296V93.7296ZM76.6635 87.3164L77.3397 88.0531C77.3523 88.0415 77.3646 88.0296 77.3766 88.0174L76.6635 87.3164ZM79.4228 83.6931L78.5685 83.1733C78.5647 83.1795 78.561 83.1857 78.5574 83.192L79.4228 83.6931ZM82.6904 74.7798L83.6783 74.9352L83.68 74.924L82.6904 74.7798ZM83.0898 69.3811L84.0898 69.3839V69.3811H83.0898ZM83.0898 47.9311L82.0903 47.9009C82.0899 47.911 82.0898 47.921 82.0898 47.9311H83.0898ZM81.3108 35.8293L82.2594 35.5127L82.255 35.5001L81.3108 35.8293ZM78.3336 30.648L77.5722 31.2962L77.5736 31.2979L78.3336 30.648ZM76.9902 29.3073L77.637 28.5446C77.6276 28.5367 77.6181 28.5289 77.6084 28.5213L76.9902 29.3073ZM62.1771 24.8144V25.8144C62.2028 25.8144 62.2285 25.8135 62.2542 25.8115L62.1771 24.8144ZM49.9361 24.8144L49.9166 25.8143C49.9231 25.8144 49.9296 25.8144 49.9361 25.8144V24.8144ZM42.4623 21.1928L41.652 21.7789C41.6639 21.7954 41.6764 21.8115 41.6893 21.8273L42.4623 21.1928ZM38.5048 15.7216L39.3151 15.1356C39.3056 15.1224 39.2958 15.1096 39.2857 15.0969L38.5048 15.7216ZM30.8078 12.0983V13.0983C30.8129 13.0983 30.8181 13.0983 30.8233 13.0982L30.8078 12.0983ZM1.43555 52.7155L2.43555 52.726V52.7155H1.43555ZM0.435727 52.7208V69.3811H2.43573V52.7208H0.435727ZM0.435728 69.3806C0.434909 71.243 0.584963 73.1023 0.88442 74.9406L2.8584 74.619C2.57631 72.8874 2.43496 71.1358 2.43573 69.3815L0.435728 69.3806ZM0.881755 74.9232C1.35827 78.2102 2.49033 81.3683 4.21092 84.2109L5.9219 83.1753C4.3399 80.5616 3.29914 77.6581 2.86106 74.6363L0.881755 74.9232ZM4.19812 84.1891C4.99189 85.5785 5.9572 86.863 7.0714 88.0124L8.50744 86.6204C7.5097 85.5911 6.64538 84.441 5.9347 83.197L4.19812 84.1891ZM7.11455 88.0543C12.1656 92.6738 18.8619 95.0778 25.7034 94.7283L25.6014 92.7309C19.2935 93.0531 13.1202 90.8366 8.4643 86.5785L7.11455 88.0543ZM25.6524 94.7296H58.8368V92.7296H25.6524V94.7296ZM58.7854 94.7283C65.6171 95.0804 72.3038 92.6749 77.3397 88.0531L75.9873 86.5796C71.3471 90.8384 65.1848 93.0554 58.8883 92.731L58.7854 94.7283ZM77.3766 88.0174C78.5043 86.8702 79.4825 85.5857 80.2882 84.1941L78.5574 83.192C77.836 84.4379 76.9601 85.5881 75.9503 86.6154L77.3766 88.0174ZM80.2771 84.2129C82.0061 81.3713 83.1615 78.2196 83.6783 74.9352L81.7026 74.6243C81.2264 77.6506 80.1618 80.5547 78.5685 83.1733L80.2771 84.2129ZM83.68 74.924C83.9475 73.0893 84.0844 71.238 84.0898 69.3839L82.0898 69.3782C82.0847 71.1376 81.9547 72.8944 81.7009 74.6355L83.68 74.924ZM84.0898 69.3811V47.9311H82.0898V69.3811H84.0898ZM84.0893 47.9613C84.217 43.7367 83.5975 39.5227 82.2593 35.5127L80.3622 36.1458C81.6258 39.9325 82.2108 43.9117 82.0903 47.9009L84.0893 47.9613ZM82.255 35.5001C81.5529 33.4859 80.4807 31.62 79.0936 29.998L77.5736 31.2979C78.7992 32.7309 79.7463 34.3793 80.3665 36.1584L82.255 35.5001ZM79.095 29.9997C78.6492 29.4761 78.1616 28.9895 77.637 28.5446L76.3435 30.07C76.7856 30.445 77.1966 30.855 77.5722 31.2962L79.095 29.9997ZM77.6084 28.5213C73.2141 25.0651 67.6777 23.386 62.0999 23.8174L62.2542 25.8115C67.3322 25.4187 72.3722 26.9475 76.372 30.0934L77.6084 28.5213ZM62.1771 23.8144H49.9361V25.8144H62.1771V23.8144ZM49.9556 23.8146C47.3492 23.7639 44.8913 22.576 43.2352 20.5584L41.6893 21.8273C43.7177 24.2985 46.7269 25.7521 49.9166 25.8143L49.9556 23.8146ZM43.2725 20.6067L39.3151 15.1356L37.6946 16.3077L41.652 21.7789L43.2725 20.6067ZM39.2857 15.0969C37.2268 12.5235 34.0904 11.0474 30.7923 11.0985L30.8233 13.0982C33.5039 13.0567 36.052 14.2565 37.724 16.3463L39.2857 15.0969ZM30.8078 11.0983H22.312V13.0983H30.8078V11.0983ZM22.312 11.0983C14.4861 11.0983 8.93331 13.404 5.37469 17.8505C1.85334 22.2505 0.43555 28.5656 0.43555 36.2657H2.43555C2.43555 28.748 3.83154 22.9795 6.93619 19.1002C10.0036 15.2675 14.8889 13.0983 22.312 13.0983V11.0983ZM0.43555 36.2657V52.7155H2.43555V36.2657H0.43555ZM0.435605 52.705C0.435278 52.7362 0.436329 52.7671 0.438691 52.7978L2.43276 52.6439C2.43485 52.671 2.43579 52.6984 2.4355 52.726L0.435605 52.705Z" fill="url(#paint1_linear_826_217)" mask="url(#path-3-outside-1_826_217)"/>
</g>
<g id="Path_3" filter="url(#filter2_bd_826_217)">
<path d="M62.9114 75.7818H21.8121C19.9473 75.7818 18.4355 74.2732 18.4355 72.4121C18.4355 70.5511 19.9473 69.0425 21.8121 69.0425H63.2382C64.2438 69.0539 65.1854 69.5371 65.7797 70.3469C66.2963 70.9494 66.5568 71.7295 66.5058 72.5208C66.4775 73.4212 66.0892 74.2728 65.4275 74.8855C64.7658 75.4982 63.8858 75.821 62.984 75.7818H62.9114Z" fill="url(#paint2_linear_826_217)"/>
<path d="M65.6184 70.4652L65.6229 70.4713L65.6278 70.477C66.1105 71.04 66.3539 71.7687 66.3062 72.508L66.3061 72.508L66.3059 72.5146C66.2793 73.3614 65.9141 74.1624 65.2916 74.7388C64.6691 75.3152 63.8412 75.6189 62.9927 75.582L62.9927 75.5818H62.984H62.9114H21.8121C20.0573 75.5818 18.6355 74.1623 18.6355 72.4121C18.6355 70.662 20.0573 69.2425 21.8121 69.2425H63.237C64.1795 69.2535 65.0617 69.7065 65.6184 70.4652Z" stroke="url(#paint3_linear_826_217)" stroke-width="0.4"/>
</g>
</g>
</g>
<defs>
<filter id="filter0_f_826_217" x="25.6123" y="1.15552" width="79.832" height="83.2798" filterUnits="userSpaceOnUse" color-interpolation-filters="sRGB">
<feFlood flood-opacity="0" result="BackgroundImageFix"/>
<feBlend mode="normal" in="SourceGraphic" in2="BackgroundImageFix" result="shape"/>
<feGaussianBlur stdDeviation="7.5" result="effect1_foregroundBlur_826_217"/>
</filter>
<filter id="filter1_b_826_217" x="-14.5645" y="-3.90283" width="113.67" height="113.665" filterUnits="userSpaceOnUse" color-interpolation-filters="sRGB">
<feFlood flood-opacity="0" result="BackgroundImageFix"/>
<feGaussianBlur in="BackgroundImageFix" stdDeviation="7.5"/>
<feComposite in2="SourceAlpha" operator="in" result="effect1_backgroundBlur_826_217"/>
<feBlend mode="normal" in="SourceGraphic" in2="effect1_backgroundBlur_826_217" result="shape"/>
</filter>
<filter id="filter2_bd_826_217" x="3.43555" y="54.0425" width="78.0767" height="36.7424" filterUnits="userSpaceOnUse" color-interpolation-filters="sRGB">
<feFlood flood-opacity="0" result="BackgroundImageFix"/>
<feGaussianBlur in="BackgroundImageFix" stdDeviation="7.5"/>
<feComposite in2="SourceAlpha" operator="in" result="effect1_backgroundBlur_826_217"/>
<feColorMatrix in="SourceAlpha" type="matrix" values="0 0 0 0 0 0 0 0 0 0 0 0 0 0 0 0 0 0 127 0" result="hardAlpha"/>
<feOffset dx="5" dy="5"/>
<feGaussianBlur stdDeviation="5"/>
<feColorMatrix type="matrix" values="0 0 0 0 0.976471 0 0 0 0 0.435294 0 0 0 0 0.352941 0 0 0 0.5 0"/>
<feBlend mode="normal" in2="effect1_backgroundBlur_826_217" result="effect2_dropShadow_826_217"/>
<feBlend mode="normal" in="SourceGraphic" in2="effect2_dropShadow_826_217" result="shape"/>
</filter>
<linearGradient id="paint0_linear_826_217" x1="45.4741" y1="20.7488" x2="72.9022" y2="118.864" gradientUnits="userSpaceOnUse">
<stop stop-color="#FFA78F"/>
<stop offset="1" stop-color="#F23E2C"/>
</linearGradient>
<linearGradient id="paint1_linear_826_217" x1="14.4361" y1="21.6112" x2="66.529" y2="86.1336" gradientUnits="userSpaceOnUse">
<stop stop-color="white" stop-opacity="0.25"/>
<stop offset="1" stop-color="white" stop-opacity="0"/>
</linearGradient>
<linearGradient id="paint2_linear_826_217" x1="63.1035" y1="70.26" x2="12.2428" y2="82.0842" gradientUnits="userSpaceOnUse">
<stop stop-color="white"/>
<stop offset="1" stop-color="white" stop-opacity="0.2"/>
</linearGradient>
<linearGradient id="paint3_linear_826_217" x1="26.0885" y1="69.828" x2="27.0724" y2="78.5162" gradientUnits="userSpaceOnUse">
<stop stop-color="white" stop-opacity="0.25"/>
<stop offset="1" stop-color="white" stop-opacity="0"/>
</linearGradient>
</defs>
</svg>

<?xml version="1.0" encoding="UTF-8"?>
<svg width="120" height="120" fill="none" version="1.1" viewBox="0 0 120 120" xmlns="http://www.w3.org/2000/svg">
 <g id="Folder" transform="translate(11.313 5.6563)">
  <g id="Bg">
   <path id="Path" d="m89.079 12.354-28.73-7.6983c-10.421-2.7924-18.124 1.6837-20.926 12.139l-9.4886 35.412c-2.8474 10.627 1.6219 18.218 12.043 21.01l28.73 7.6983c10.589 2.8374 18.084-1.5476 20.931-12.174l9.4888-35.412c2.801-10.456-1.4599-18.137-12.049-20.975z" fill="url(#paint0_linear_826_217)"/>
   <g filter="url(#filter0_f_826_217)" opacity=".5">
    <path d="m81.631 21.976-19.646-5.2641c-7.1261-1.9094-12.393 1.1513-14.309 8.3009l-6.4883 24.215c-1.9471 7.2667 1.1091 12.457 8.2352 14.367l19.646 5.2642c7.2409 1.9402 12.366-1.0583 14.313-8.325l6.4883-24.215c1.9157-7.1495-0.9981-12.402-8.2391-14.343z" fill="#f86652"/>
   </g>
  </g>
  <g id="Icon">
   <g id="Union" filter="url(#filter1_b_826_217)">
    <mask id="path-3-outside-1_826_217" x="0.435547" y="11.0972" width="84" height="84" fill="#000000" maskUnits="userSpaceOnUse">
     <rect x=".43555" y="11.097" width="84" height="84" fill="#fff"/>
     <path d="m1.4357 52.721v16.66c-8e-4 1.8083 0.1449 3.6138 0.43568 5.3987 0.45729 3.1543 1.5437 6.1852 3.195 8.9133 0.75222 1.3167 1.667 2.534 2.723 3.6233 4.8535 4.4388 11.288 6.749 17.863 6.4132h33.184c6.5642 0.3383 12.989-1.973 17.827-6.4132 1.0687-1.0872 1.9958-2.3046 2.7593-3.6233 1.6611-2.7301 2.7712-5.758 3.2676-8.9133 0.2607-1.7879 0.3942-3.592 0.3994-5.3987v-21.45c0.1241-4.1069-0.4781-8.2035-1.779-12.102-0.6612-1.8967-1.6708-3.6538-2.9772-5.1813-0.4107-0.4824-0.86-0.9308-1.3434-1.3407-4.1971-3.301-9.4852-4.9049-14.813-4.4929h-12.241c-2.898-0.0564-5.6316-1.3771-7.4738-3.6216l-3.9575-5.4712c-1.8654-2.3316-4.7077-3.6696-7.697-3.6233h-8.4958c-15.249 0-20.876 8.9496-20.876 24.167v16.45c-2e-5 0.0018 4e-5 0.0036 1.8e-4 0.0053z" clip-rule="evenodd" fill-rule="evenodd"/>
    </mask>
    <path d="m1.4357 52.721v16.66c-8e-4 1.8083 0.1449 3.6138 0.43568 5.3987 0.45729 3.1543 1.5437 6.1852 3.195 8.9133 0.75222 1.3167 1.667 2.534 2.723 3.6233 4.8535 4.4388 11.288 6.749 17.863 6.4132h33.184c6.5642 0.3383 12.989-1.973 17.827-6.4132 1.0687-1.0872 1.9958-2.3046 2.7593-3.6233 1.6611-2.7301 2.7712-5.758 3.2676-8.9133 0.2607-1.7879 0.3942-3.592 0.3994-5.3987v-21.45c0.1241-4.1069-0.4781-8.2035-1.779-12.102-0.6612-1.8967-1.6708-3.6538-2.9772-5.1813-0.4107-0.4824-0.86-0.9308-1.3434-1.3407-4.1971-3.301-9.4852-4.9049-14.813-4.4929h-12.241c-2.898-0.0564-5.6316-1.3771-7.4738-3.6216l-3.9575-5.4712c-1.8654-2.3316-4.7077-3.6696-7.697-3.6233h-8.4958c-15.249 0-20.876 8.9496-20.876 24.167v16.45c-2e-5 0.0018 4e-5 0.0036 1.8e-4 0.0053z" clip-rule="evenodd" fill="#ffac95" fill-opacity=".4" fill-rule="evenodd"/>
    <path d="m1.4357 52.721h1c0-0.0256-9.9e-4 -0.0513-0.00297-0.0769zm0 16.66 1 4e-4v-4e-4zm0.43568 5.3987 0.98965-0.1435c-8.3e-4 -0.0058-0.00172-0.0116-0.00266-0.0173zm3.195 8.9133 0.86829-0.4961c-0.00417-0.0073-0.00844-0.0145-0.0128-0.0217zm2.723 3.6233-0.71802 0.696c0.01396 0.0144 0.02835 0.0284 0.04315 0.0419zm17.863 6.4132v-1c-0.017 0-0.034 5e-4 -0.051 0.0013zm33.184 0 0.0515-0.9986c-0.0171-9e-4 -0.0343-0.0014-0.0515-0.0014zm17.827-6.4132 0.6762 0.7367c0.0126-0.0116 0.0249-0.0235 0.0369-0.0357zm2.7593-3.6233-0.8543-0.5198c-0.0038 0.0062-0.0075 0.0124-0.0111 0.0187zm3.2676-8.9133 0.9879 0.1554 0.0017-0.0112zm0.3994-5.3987 1 0.0028v-0.0028zm0-21.45-0.9995-0.0302c-4e-4 0.0101-5e-4 0.0201-5e-4 0.0302zm-1.779-12.102 0.9486-0.3166-0.0044-0.0126zm-2.9772-5.1813-0.7614 0.6482 0.0014 0.0017zm-1.3434-1.3407 0.6468-0.7627c-0.0094-0.0079-0.0189-0.0157-0.0286-0.0233zm-14.813-4.4929v1c0.0257 0 0.0514-9e-4 0.0771-0.0029zm-12.241 0-0.0195 0.9999c0.0065 1e-4 0.013 1e-4 0.0195 1e-4zm-7.4738-3.6216-0.8103 0.5861c0.0119 0.0165 0.0244 0.0326 0.0373 0.0484zm-3.9575-5.4712 0.8103-0.586c-0.0095-0.0132-0.0193-0.026-0.0294-0.0387zm-7.697-3.6233v1c0.0051 0 0.0103 0 0.0155-1e-4zm-29.372 40.617 1 0.0105v-0.0105zm-0.99982 0.0053v16.66h2v-16.66zm1e-6 16.66c-8.19e-4 1.8624 0.14924 3.7217 0.44869 5.56l1.974-0.3216c-0.28209-1.7316-0.42344-3.4832-0.42267-5.2375zm0.44603 5.5426c0.47652 3.287 1.6086 6.4451 3.3292 9.2877l1.711-1.0356c-1.582-2.6137-2.6228-5.5172-3.0608-8.539zm3.3164 9.2659c0.79377 1.3894 1.7591 2.6739 2.8733 3.8233l1.436-1.392c-0.99774-1.0293-1.8621-2.1794-2.5727-3.4234zm2.9164 3.8652c5.051 4.6195 11.747 7.0235 18.589 6.674l-0.102-1.9974c-6.3079 0.3222-12.481-1.8943-17.137-6.1524zm18.538 6.6753h33.184v-2h-33.184zm33.133-0.0013c6.8317 0.3521 13.518-2.0534 18.554-6.6752l-1.3524-1.4735c-4.6402 4.2588-10.802 6.4758-17.099 6.1514zm18.591-6.7109c1.1277-1.1472 2.1059-2.4317 2.9116-3.8233l-1.7308-1.0021c-0.7214 1.2459-1.5973 2.3961-2.6071 3.4234zm2.9005-3.8045c1.729-2.8416 2.8844-5.9933 3.4012-9.2777l-1.9757-0.3109c-0.4762 3.0263-1.5408 5.9304-3.1341 8.549zm3.4029-9.2889c0.2675-1.8347 0.4044-3.686 0.4098-5.5401l-2-0.0057c-0.0051 1.7594-0.1351 3.5162-0.3889 5.2573zm0.4098-5.5429v-21.45h-2v21.45zm-5e-4 -21.42c0.1277-4.2246-0.4918-8.4386-1.83-12.449l-1.8971 0.6331c1.2636 3.7867 1.8486 7.7659 1.7281 11.755zm-1.8343-12.461c-0.7021-2.0142-1.7743-3.8801-3.1614-5.5021l-1.52 1.2999c1.2256 1.433 2.1727 3.0814 2.7929 4.8605zm-3.16-5.5004c-0.4458-0.5236-0.9334-1.0102-1.458-1.4551l-1.2935 1.5254c0.4421 0.375 0.8531 0.785 1.2287 1.2262zm-1.4866-1.4784c-4.3943-3.4562-9.9307-5.1353-15.508-4.7039l0.1543 1.9941c5.078-0.3928 10.118 1.136 14.118 4.2819zm-15.431-4.7069h-12.241v2h12.241zm-12.222 2e-4c-2.6064-0.0507-5.0643-1.2386-6.7204-3.2562l-1.5459 1.2689c2.0284 2.4712 5.0376 3.9248 8.2273 3.987zm-6.6831-3.2079-3.9574-5.4711-1.6205 1.1721 3.9574 5.4712zm-3.9868-5.5098c-2.0589-2.5734-5.1953-4.0495-8.4934-3.9984l0.031 1.9997c2.6806-0.0415 5.2287 1.1583 6.9007 3.2481zm-8.4779-3.9986h-8.4958v2h8.4958zm-8.4958 0c-7.8259 0-13.379 2.3057-16.937 6.7522-3.5214 4.4-4.9391 10.715-4.9391 18.415h2c0-7.5177 1.396-13.286 4.5006-17.166 3.0674-3.8327 7.9527-6.0019 15.376-6.0019zm-21.876 25.167v16.45h2v-16.45zm5.5e-5 16.439c-3.27e-4 0.0312 7.24e-4 0.0621 0.003086 0.0928l1.9941-0.1539c0.00209 0.0271 0.00303 0.0545 0.00274 0.0821z" fill="url(#paint1_linear_826_217)" mask="url(#path-3-outside-1_826_217)"/>
   </g>
   <g filter="url(#filter2_bd_826_217)">
    <path d="m62.911 75.782h-41.099c-1.8648 0-3.3766-1.5086-3.3766-3.3697 0-1.861 1.5118-3.3696 3.3766-3.3696h41.426c1.0056 0.0114 1.9472 0.4946 2.5415 1.3044 0.5166 0.6025 0.7771 1.3826 0.7261 2.1739-0.0283 0.9004-0.4166 1.752-1.0783 2.3647s-1.5417 0.9355-2.4435 0.8963z" fill="url(#paint2_linear_826_217)"/>
    <path d="m65.618 70.465 0.0045 0.0061 0.0049 0.0057c0.4827 0.563 0.7261 1.2917 0.6784 2.031h-1e-4l-2e-4 0.0066c-0.0266 0.8468-0.3918 1.6478-1.0143 2.2242s-1.4504 0.8801-2.2989 0.8432v-2e-4h-41.181c-1.7548 0-3.1766-1.4195-3.1766-3.1697 0-1.7501 1.4218-3.1696 3.1766-3.1696h41.425c0.9425 0.011 1.8247 0.464 2.3814 1.2227z" stroke="url(#paint3_linear_826_217)" stroke-width=".4"/>
   </g>
  </g>
 </g>
 <defs>
  <filter id="filter0_f_826_217" x="25.612" y="1.1555" width="79.832" height="83.28" color-interpolation-filters="sRGB" filterUnits="userSpaceOnUse">
   <feFlood flood-opacity="0" result="BackgroundImageFix"/>
   <feBlend in="SourceGraphic" in2="BackgroundImageFix" result="shape"/>
   <feGaussianBlur result="effect1_foregroundBlur_826_217" stdDeviation="7.5"/>
  </filter>
  <filter id="filter1_b_826_217" x="-14.564" y="-3.9028" width="113.67" height="113.66" color-interpolation-filters="sRGB" filterUnits="userSpaceOnUse">
   <feFlood flood-opacity="0" result="BackgroundImageFix"/>
   <feGaussianBlur in="BackgroundImageFix" stdDeviation="7.5"/>
   <feComposite in2="SourceAlpha" operator="in" result="effect1_backgroundBlur_826_217"/>
   <feBlend in="SourceGraphic" in2="effect1_backgroundBlur_826_217" result="shape"/>
  </filter>
  <filter id="filter2_bd_826_217" x="3.4356" y="54.042" width="78.077" height="36.742" color-interpolation-filters="sRGB" filterUnits="userSpaceOnUse">
   <feFlood flood-opacity="0" result="BackgroundImageFix"/>
   <feGaussianBlur in="BackgroundImageFix" stdDeviation="7.5"/>
   <feComposite in2="SourceAlpha" operator="in" result="effect1_backgroundBlur_826_217"/>
   <feColorMatrix in="SourceAlpha" result="hardAlpha" values="0 0 0 0 0 0 0 0 0 0 0 0 0 0 0 0 0 0 127 0"/>
   <feOffset dx="5" dy="5"/>
   <feGaussianBlur stdDeviation="5"/>
   <feColorMatrix values="0 0 0 0 0.976471 0 0 0 0 0.435294 0 0 0 0 0.352941 0 0 0 0.5 0"/>
   <feBlend in2="effect1_backgroundBlur_826_217" result="effect2_dropShadow_826_217"/>
   <feBlend in="SourceGraphic" in2="effect2_dropShadow_826_217" result="shape"/>
  </filter>
  <linearGradient id="paint0_linear_826_217" x1="45.474" x2="72.902" y1="20.749" y2="118.86" gradientUnits="userSpaceOnUse">
   <stop stop-color="#FFA78F" offset="0"/>
   <stop stop-color="#F23E2C" offset="1"/>
  </linearGradient>
  <linearGradient id="paint1_linear_826_217" x1="14.436" x2="66.529" y1="21.611" y2="86.134" gradientUnits="userSpaceOnUse">
   <stop stop-color="#fff" stop-opacity=".25" offset="0"/>
   <stop stop-color="#fff" stop-opacity="0" offset="1"/>
  </linearGradient>
  <linearGradient id="paint2_linear_826_217" x1="63.104" x2="12.243" y1="70.26" y2="82.084" gradientUnits="userSpaceOnUse">
   <stop stop-color="#fff" offset="0"/>
   <stop stop-color="#fff" stop-opacity=".2" offset="1"/>
  </linearGradient>
  <linearGradient id="paint3_linear_826_217" x1="26.088" x2="27.072" y1="69.828" y2="78.516" gradientUnits="userSpaceOnUse">
   <stop stop-color="#fff" stop-opacity=".25" offset="0"/>
   <stop stop-color="#fff" stop-opacity="0" offset="1"/>
  </linearGradient>
 </defs>
</svg>
